assets/svg/wallet.svg

<?xml version="1.0" encoding="utf-8"?><!-- Uploaded to: SVG Repo, www.svgrepo.com, Generator: SVG Repo Mixer Tools -->
<svg width="800px" height="800px" viewBox="0 0 24 24" fill="none" xmlns="http://www.w3.org/2000/svg">
<path d="M6 8H10" stroke="#1C274C" stroke-width="1.5" stroke-linecap="round" stroke-linejoin="round"/>
<path d="M20.8333 9H18.2308C16.4465 9 15 10.3431 15 12C15 13.6569 16.4465 15 18.2308 15H20.8333C20.9167 15 20.9583 15 20.9935 14.9979C21.5328 14.965 21.9623 14.5662 21.9977 14.0654C22 14.0327 22 13.994 22 13.9167V10.0833C22 10.006 22 9.96726 21.9977 9.9346C21.9623 9.43384 21.5328 9.03496 20.9935 9.00214C20.9583 9 20.9167 9 20.8333 9Z" stroke="#1C274C" stroke-width="1.5"/>
<path d="M20.965 9C20.8873 7.1277 20.6366 5.97975 19.8284 5.17157C18.6569 4 16.7712 4 13 4L10 4C6.22876 4 4.34315 4 3.17157 5.17157C2 6.34315 2 8.22876 2 12C2 15.7712 2 17.6569 3.17157 18.8284C4.34315 20 6.22876 20 10 20H13C16.7712 20 18.6569 20 19.8284 18.8284C20.6366 18.0203 20.8873 16.8723 20.965 15" stroke="#1C274C" stroke-width="1.5"/>
<path d="M17.9912 12H18.0002" stroke="#1C274C" stroke-width="2" stroke-linecap="round" stroke-linejoin="round"/>
</svg>

<svg xmlns="http://www.w3.org/2000/svg" width="800" height="800" fill="none" viewBox="0 0 24 24">
    <path stroke="#1c274c" stroke-linecap="round" stroke-linejoin="round" stroke-width="1.5"
        d="M6 8h4" />
    <path stroke="#1c274c" stroke-width="1.5"
        d="M20.833 9h-2.602C16.446 9 15 10.343 15 12s1.447 3 3.23 3h2.603c.084 0 .125 0 .16-.002.54-.033.97-.432 1.005-.933.002-.032.002-.071.002-.148v-3.834c0-.077 0-.116-.002-.148-.036-.501-.465-.9-1.005-.933C20.959 9 20.918 9 20.834 9Z" />
    <path stroke="#1c274c" stroke-width="1.5"
        d="M20.965 9c-.078-1.872-.328-3.02-1.137-3.828C18.657 4 16.771 4 13 4h-3C6.229 4 4.343 4 3.172 5.172S2 8.229 2 12s0 5.657 1.172 6.828S6.229 20 10 20h3c3.771 0 5.657 0 6.828-1.172.809-.808 1.06-1.956 1.137-3.828" />
    <path stroke="#1c274c" stroke-linecap="round" stroke-linejoin="round" stroke-width="2"
        d="M17.991 12h.01" />
</svg>
